src/main/resources/icons/UIDesignerIcons/com/intellij/uiDesigner/icons/slider.svg

<svg xmlns="http://www.w3.org/2000/svg" width="16" height="16" viewBox="0 0 16 16"><rect id="frame" width="16" height="16" fill="none"/><path fill="#9AA7B0" fill-opacity=".6" fill-rule="evenodd" d="M5.6 10l1.6 2H1v-2h4.6zm4.8 0H15v2H8.8l1.6-2zm.6-3l-3 4-3-4V4h6v3z"/></svg>

<svg xmlns="http://www.w3.org/2000/svg" width="16" height="16" viewBox="0 0 16 16">
  <path fill="#9AA7B0" fill-opacity=".6" fill-rule="evenodd" d="M5.6 10L7.2 12 1 12 1 10 5.6 10zM10.4 10L15 10 15 12 8.8 12 10.4 10zM11 7L8 11 5 7 5 4 11 4 11 7z"/>
</svg>
